app2/images/phone.svg

<svg width="7" height="9" viewBox="0 0 7 9" fill="none" xmlns="http://www.w3.org/2000/svg">
<path d="M7 7.59123C6.99424 7.72683 6.93679 7.83497 6.82779 7.91567L5.54968 8.85406C5.49099 8.90255 5.41876 8.93965 5.33299 8.96522C5.2472 8.99085 5.16519 9.00231 5.08697 8.99961C5.08152 8.9986 5.06488 8.99703 5.03712 8.99483C5.00942 8.99263 4.97374 8.98749 4.93013 8.97937C4.82651 8.96007 4.66198 8.91012 4.43653 8.82949C4.21108 8.74886 3.94299 8.60384 3.63225 8.39447C3.32143 8.18506 2.97797 7.89378 2.60179 7.5207C2.22561 7.14764 1.84043 6.65993 1.44628 6.05767C1.13102 5.58896 0.878297 5.14972 0.688109 4.73997C0.497927 4.3302 0.35224 3.95694 0.251051 3.6202C0.149848 3.28346 0.0820124 2.98264 0.0475303 2.71775C0.0130483 2.45285 -0.00267188 2.2271 0.00036985 2.0405C0.00341155 1.85389 0.0163158 1.70924 0.0390827 1.60652C0.0618496 1.50381 0.074195 1.44669 0.0761189 1.43516C0.10049 1.35651 0.138731 1.27897 0.190843 1.20251C0.242954 1.12606 0.300598 1.06698 0.363775 1.02527L1.64334 0.0781892C1.73313 0.0117273 1.82709 -0.0123644 1.92523 0.00591394C1.9961 0.019115 2.05519 0.0524032 2.1025 0.105778C2.1498 0.159154 2.18724 0.22109 2.21483 0.291589L2.79695 2.20933C2.83062 2.31067 2.82742 2.41406 2.78733 2.51949C2.74725 2.62492 2.68552 2.70849 2.60214 2.7702L2.13072 3.11913C2.11789 3.12862 2.10522 3.14558 2.09272 3.16999C2.08021 3.19439 2.07251 3.21524 2.06963 3.23253C2.07123 3.35761 2.09721 3.50506 2.14757 3.67487C2.18991 3.82536 2.26263 4.0127 2.36574 4.23691C2.46885 4.46111 2.62416 4.72621 2.83166 5.03225C3.03274 5.34306 3.21643 5.58967 3.38271 5.77218C3.54897 5.95461 3.69045 6.09242 3.80702 6.18543C3.9236 6.27845 4.01476 6.33851 4.0805 6.36557L4.17908 6.40622C4.18999 6.40826 4.20847 6.40723 4.23442 6.40316C4.2604 6.39907 4.2798 6.3923 4.29264 6.3828L4.84245 5.96826C4.95603 5.89436 5.07816 5.86957 5.20902 5.89394C5.30173 5.91121 5.37241 5.94219 5.42115 5.98693L5.42932 5.98845L6.84313 7.26786C6.94515 7.36416 6.99742 7.47191 7 7.59123Z" fill="#F8C307"/>
</svg>

<svg width="7" height="9" viewBox="0 0 7 9" fill="none" xmlns="http://www.w3.org/2000/svg"><path d="M7 7.591a.407.407 0 01-.172.325l-1.278.938a.609.609 0 01-.217.111.766.766 0 01-.403.014 3.668 3.668 0 01-.493-.15 3.802 3.802 0 01-.805-.435 7.33 7.33 0 01-1.03-.873c-.376-.373-.762-.861-1.156-1.463A9.736 9.736 0 01.688 4.74a8.525 8.525 0 01-.437-1.12 5.771 5.771 0 01-.203-.902A4.77 4.77 0 010 2.04a2.294 2.294 0 01.076-.606.872.872 0 01.115-.232.64.64 0 01.173-.178l1.28-.947a.35.35 0 01.281-.072c.071.013.13.046.177.1a.616.616 0 01.113.186l.582 1.917a.45.45 0 01-.01.31.544.544 0 01-.185.251l-.471.35a.145.145 0 00-.038.05.224.224 0 00-.023.063c.001.125.027.272.078.442.042.15.115.338.218.562.103.224.258.49.466.795.2.311.384.558.55.74.167.183.308.32.425.413.117.093.208.154.273.18l.1.041c.01.002.028.001.054-.003a.134.134 0 00.059-.02l.55-.415a.486.486 0 01.366-.074.422.422 0 01.212.093l.008.001 1.414 1.28A.45.45 0 017 7.59z" fill="#F8C307"/></svg>
